X:166
U: ~ = !turn!
%%topmargin 3cm
T:Pipe Jig
B:Traditional Irish Fiddle Tunes. Randy Miller and Jack Perron.
S:The Chieftains
Z:Transcribed by Ralph Palmer
R:Jig
M:6/8
L:1/8
K:D
g | fef ded | cAB c2 A | dcA G{/A}GG | Ade {/g}f2 g |
{/b}agd g/2f/2ed | cAB cde | dcA G{/A}GG | ABc d2 :|]
((3ABc) | dfa dfa | dfa {/b}afd | cef Ace | g>gg gfe |
fdf {/a}gfg | afd efg | fed cAG | ABc d3 |
dfa dfa | dfa {/b}afd | cef Ace | g>gg gfe |
fdf {/a}gfg | aga bag | fed cAG | ABc d2 |]
